svgs/duotone/rv.svg

<svg xmlns="http://www.w3.org/2000/svg" viewBox="0 0 640 512"><!--! Font Awesome Pro 6.4.0 by @fontawesome - https://fontawesome.com License - https://fontawesome.com/license (Commercial License) Copyright 2023 Fonticons, Inc. --><defs><style>.fa-secondary{opacity:.4}</style></defs><path class="fa-primary" d="M224 16c0-8.8 7.2-16 16-16H368c8.8 0 16 7.2 16 16V32H512c53 0 96 43 96 96c0 17.7-14.3 32-32 32H384V416H266.5c-13.2-37.3-48.7-64-90.5-64c-38.9 0-72.5 23.2-87.5 56.5L18.7 338.7C6.7 326.7 0 310.5 0 293.5V96C0 60.7 28.7 32 64 32H224V16zM96 144v64c0 8.8 7.2 16 16 16H240c8.8 0 16-7.2 16-16V144c0-8.8-7.2-16-16-16H112c-8.8 0-16 7.2-16 16zM416 320V288 216 192h24 76.6c12.9 0 25.5 4.5 35.5 12.7l67.4 55.2c13 10.6 20.5 26.5 20.5 43.3V320v64c0 17.7-14.3 32-32 32H586.5c-13.2-37.3-48.7-64-90.5-64c-33.4 0-62.8 17-80 42.9V320zm162.1-32l-56.5-46.2c-1.4-1.2-3.2-1.8-5.1-1.8H464v48H578.1z"/><path class="fa-secondary" d="M176 512a64 64 0 1 0 0-128 64 64 0 1 0 0 128zm320 0a64 64 0 1 0 0-128 64 64 0 1 0 0 128z"/></svg>

<svg xmlns="http://www.w3.org/2000/svg" viewBox="0 0 640 512"><!--! Font Awesome Pro 6.3.0 by @fontawesome - https://fontawesome.com License - https://fontawesome.com/license (Commercial License) Copyright 2023 Fonticons, Inc. --><defs><style>.fa-secondary{opacity:.4}</style></defs><path class="fa-primary" d="M224 16C224 7.164 231.2 0 240 0H368C376.8 0 384 7.164 384 16V32H512C565 32 608 74.98 608 128C608 145.7 593.7 160 576 160H384V416H266.5C253.4 378.7 217.8 352 176 352C137.1 352 103.5 375.2 88.48 408.5L18.75 338.7C6.743 326.7 0 310.5 0 293.5V96C0 60.65 28.65 32 64 32H224V16zM96 208C96 216.8 103.2 224 112 224H240C248.8 224 256 216.8 256 208V144C256 135.2 248.8 128 240 128H112C103.2 128 96 135.2 96 144V208zM416 192H516.6C529.5 192 542 196.5 552 204.7L619.5 259.8C632.5 270.5 640 286.4 640 303.2V384C640 401.7 625.7 416 608 416H586.5C573.4 378.7 537.8 352 496 352C462.6 352 433.2 369 416 394.9V192zM521.6 241.8C520.2 240.6 518.4 240 516.6 240H464V288H578.1L521.6 241.8z"/><path class="fa-secondary" d="M112 448C112 412.7 140.7 384 176 384C211.3 384 240 412.7 240 448C240 483.3 211.3 512 176 512C140.7 512 112 483.3 112 448zM432 448C432 412.7 460.7 384 496 384C531.3 384 560 412.7 560 448C560 483.3 531.3 512 496 512C460.7 512 432 483.3 432 448z"/></svg>
